X: 1
T: Kickin' Up The Devil On A Holiday
M: 4/4
L: 1/8
R: reel
K: Amin
Ad|:ccAc BAGB|AGAc ddAd|cABG AAGE|1 EEDC DDAd:|2 EEDC DDDC||
D2DD EDEG|A2AA AAAB|c2AB c2AB|cBcd cAGE|!
DDDC DDFG|A2AA dAAd|cABG AAGE|1 EEDC DDDC:|2 EEDC DDAd|]
